!!!SOCIAL_FUNCTION:	songs of the sun dance
!!!PDT:	1936
!!!OTL: No_49_Frog-Dance_Song.krn
!!!REG: Oklahoma and Montana
!!!LANG: Tone
!!!LING_GROUP: Algonquin
**kern	**kern
*staff2	*staff1
=1-	=1-
*clefF4	*clefF4
*k[b-e-]	*k[b-e-]
*M3/4	*M3/4
4GG/	2r
4GG/	.
4GG/	8f\L
.	16.g\L
.	32f\JJk
=2!|:	=2!|:
4GG/	2f\
4GG/	.
4GG/	16c\LK
.	8.e-\J
=3	=3
*M2/4	*M2/4
2r	16c\LL
.	16c\J
.	8B-\J
.	8B-\L
.	8B-\J
=4	=4
2r	8B-\L
.	8B-\J
.	16F\LK
.	8.G\J
=5	=5
2r	16G\LL
.	16G\J
.	8F\J
.	8F\L
.	8F\J
=6	=6
*M5/8	*M5/8
3...r	8F\L
.	8F\J
.	8r
.	8d\L
.	16.f\L
.	32d\JJk
=7	=7
*M3/4	*M3/4
2.r	8d\L
.	8d\J
.	8d\L
.	8d\J
.	16B-\LK
.	8.d\J
=8	=8
*M2/4	*M2/4
2r	16B-\LK
.	8.G\J
.	8G\L
.	8G\J
=9	=9
2r	8G\L
.	8G\J
.	16D\LK
.	8.G\J
=10	=10
2r	16G\LL
.	16G\J
.	8F\J
.	8F\L
.	8F\J
=11	=11
*M5/8	*M5/8
3...r	8F\L
.	8F\J
.	8r
.	8B-\L
.	16.d\L
.	32B-\JJk
=12	=12
*M3/4	*M3/4
2.r	8B-\L
.	8B-\J
.	8B-\L
.	8B-\J
.	16F\LK
.	8.G\J
=13	=13
*M2/4	*M2/4
2r	16G\LL
.	16G\J
.	8F\J
.	8F\L
.	8F\J
=14	=14
2r	8F\L
.	8F\J
.	16D\LK
.	8.D\J
=15	=15
2r	16C/LL
.	16C/J
.	8BB-/J
.	16C/LL
.	16C/J
.	8BB-/J
=16	=16
2r	4BB-/
.	4BB-/
=17	=17
2r	8BB-/
.	8r
.	8f\L
.	16.g\L
.	32f\JJk
=18:|!	=18:|!
2r	8BB-/
.	4.r
==	==
*-	*-
